src/tablet.svg

<?xml version="1.0" encoding="UTF-8" standalone="no"?>
<svg width="20px" height="20px" viewBox="0 0 20 20" version="1.1" xmlns="http://www.w3.org/2000/svg" xmlns:xlink="http://www.w3.org/1999/xlink">
    <!-- Generator: Sketch 3.7.2 (28276) - http://www.bohemiancoding.com/sketch -->
    <title>tablet</title>
    <desc>Created with Sketch.</desc>
    <defs></defs>
    <g id="Page-1" stroke="none" stroke-width="1" fill="none" fill-rule="evenodd">
        <g id="tablet" fill="#000000">
            <path d="M2,1.99079514 C2,0.891309342 2.89451376,0 3.99406028,0 L16.0059397,0 C17.1072288,0 18,0.898212381 18,1.99079514 L18,18.0092049 C18,19.1086907 17.1054862,20 16.0059397,20 L3.99406028,20 C2.8927712,20 2,19.1017876 2,18.0092049 L2,1.99079514 Z M4,2 L16,2 L16,16 L4,16 L4,2 Z M10,19 C10.5522847,19 11,18.5522847 11,18 C11,17.4477153 10.5522847,17 10,17 C9.44771525,17 9,17.4477153 9,18 C9,18.5522847 9.44771525,19 10,19 Z" id="Combined-Shape"></path>
        </g>
    </g>
</svg>

<svg xmlns="http://www.w3.org/2000/svg" viewBox="0 0 20 20"><path d="M2 2c0-1.1.9-2 2-2h12a2 2 0 0 1 2 2v16a2 2 0 0 1-2 2H4a2 2 0 0 1-2-2V2zm2 0v14h12V2H4zm6 17a1 1 0 1 0 0-2 1 1 0 0 0 0 2z"/></svg>
